X: 12526
T: Farewell To Ireland
R: reel
M: 4/4
K: Adorian
G,|:~A,3,2C ~E3F|GEDB, G,A,B,G,|~A,3,2C ~E3F|GEDB, EA,A,G,|
~A,3,2C ~E3F|GEDB, G,2zg|edeg abaf|gedB cA~A2:|
|:a2a3/2a/ agef|~g3a gece|~a3b agef|gedB cA~A2|
agef ~g3e|~d3B GBdB|cA~A2 A,CEa|gedB cA~A2:|
|:eAce Acec|d~G3 BGBd|eA(3cBA eAce|gedB cA~A2|
eA(3cBA eAce|~d3B GBdB|cA~A2 A,CEa|gedB cA~A2:|
|:aece aece|gdBd gdBg|aece aeca|gedB cA~A2|
agef ~g3e|~d3B GBdB|cA~A2 A,CEa|gedB cA~A2:|

